src/lib/packages/icons/src/assets/filled/message-minus.svg

<svg xmlns="http://www.w3.org/2000/svg" width="24" height="24" fill="none"><path fill="currentColor" d="M21 6v5.979c0 .209-.204.344-.403.28A5.079 5.079 0 0 0 19 12c-2.76 0-5 2.24-5 5 0 .222.013.444.041.661.015.115-.06.339-.295.339H6l-3 3V6c0-2 1-3 3-3h12c2 0 3 1 3 3Zm.75 10a.75.75 0 0 0-.75-.75h-5a.75.75 0 0 0 0 1.5h5a.75.75 0 0 0 .75-.75Z"/></svg>

<svg width="24" height="24" viewBox="0 0 24 24" fill="none" xmlns="http://www.w3.org/2000/svg">
<path d="M21 6V11.979C21 12.188 20.7959 12.3231 20.5969 12.2581C20.0959 12.0921 19.557 12 19 12C16.24 12 14 14.24 14 17C14 17.222 14.013 17.444 14.041 17.661C14.056 17.776 13.9801 18 13.7461 18H6L3 21V6C3 4 4 3 6 3H18C20 3 21 4 21 6ZM21.75 16C21.75 15.586 21.414 15.25 21 15.25H16C15.586 15.25 15.25 15.586 15.25 16C15.25 16.414 15.586 16.75 16 16.75H21C21.414 16.75 21.75 16.414 21.75 16Z" fill="currentColor"/>
</svg>
